modules/Content/assets/icons/collection.svg

<svg xmlns="http://www.w3.org/2000/svg" xmlns:xlink="http://www.w3.org/1999/xlink" version="1.1" x="0px" y="0px" viewBox="0 0 100 100" enable-background="new 0 0 100 100" xml:space="preserve"><g><g><path fill="#000000" d="M49.896,60.677c-0.512,0-1.023-0.13-1.483-0.392L6.522,36.486c-0.933-0.529-1.51-1.513-1.521-2.583    c-0.01-1.069,0.549-2.065,1.47-2.612l42.1-25.038c0.941-0.562,2.115-0.562,3.062-0.007l41.889,24.676    c0.92,0.543,1.485,1.537,1.479,2.607c-0.007,1.069-0.58,2.055-1.51,2.588L51.393,60.277C50.93,60.544,50.413,60.677,49.896,60.677    z M13.985,33.813L49.89,54.211l36.127-20.733l-35.904-21.15L13.985,33.813z"></path></g><g><path fill="#000000" d="M49.896,77.431c-0.512,0-1.023-0.13-1.483-0.392L6.522,53.241c-1.444-0.819-1.949-2.654-1.13-4.098    s2.66-1.951,4.097-1.128l40.4,22.95l40.609-23.305c1.438-0.826,3.277-0.33,4.102,1.11c0.826,1.439,0.328,3.276-1.111,4.102    l-42.097,24.16C50.93,77.299,50.413,77.431,49.896,77.431z"></path></g><g><path fill="#000000" d="M49.896,94.169c-0.512,0-1.023-0.13-1.483-0.392L6.522,69.979c-1.444-0.819-1.949-2.654-1.13-4.098    c0.819-1.442,2.66-1.948,4.097-1.128l40.4,22.95l40.609-23.305c1.438-0.829,3.277-0.329,4.102,1.11    c0.826,1.439,0.328,3.276-1.111,4.102l-42.097,24.16C50.93,94.037,50.413,94.169,49.896,94.169z"></path></g></g></svg>

<svg width="100%" height="100%" viewBox="0 0 100 100" version="1.1" xmlns="http://www.w3.org/2000/svg" xmlns:xlink="http://www.w3.org/1999/xlink" xml:space="preserve" xmlns:serif="http://www.serif.com/" style="fill-rule:evenodd;clip-rule:evenodd;stroke-linejoin:round;stroke-miterlimit:2;">
    <g transform="matrix(1.09325,0,0,1.09325,-4.66247,-4.66241)">
        <g>
            <path d="M49.896,60.677C49.384,60.677 48.873,60.547 48.413,60.285L6.522,36.486C5.589,35.957 5.012,34.973 5.001,33.903C4.991,32.834 5.55,31.838 6.471,31.291L48.571,6.253C49.512,5.691 50.686,5.691 51.633,6.246L93.522,30.922C94.442,31.465 95.007,32.459 95.001,33.529C94.994,34.598 94.421,35.584 93.491,36.117L51.393,60.277C50.93,60.544 50.413,60.677 49.896,60.677ZM13.985,33.813L49.89,54.211L86.017,33.478L50.113,12.328L13.985,33.813Z" style="fill-rule:nonzero;"/>
        </g>
        <g>
            <path d="M49.896,77.431C49.384,77.431 48.873,77.301 48.413,77.039L6.522,53.241C5.078,52.422 4.573,50.587 5.392,49.143C6.211,47.699 8.052,47.192 9.489,48.015L49.889,70.965L90.498,47.66C91.936,46.834 93.775,47.33 94.6,48.77C95.426,50.209 94.928,52.046 93.489,52.872L51.392,77.032C50.93,77.299 50.413,77.431 49.896,77.431Z" style="fill-rule:nonzero;"/>
        </g>
        <g>
            <path d="M49.896,94.169C49.384,94.169 48.873,94.039 48.413,93.777L6.522,69.979C5.078,69.16 4.573,67.325 5.392,65.881C6.211,64.439 8.052,63.933 9.489,64.753L49.889,87.703L90.498,64.398C91.936,63.569 93.775,64.069 94.6,65.508C95.426,66.947 94.928,68.784 93.489,69.61L51.392,93.77C50.93,94.037 50.413,94.169 49.896,94.169Z" style="fill-rule:nonzero;"/>
        </g>
    </g>
</svg>
